color/svg/1FBC5.svg

<svg id="emoji" viewBox="0 0 72 72" xmlns="http://www.w3.org/2000/svg">
  <g id="color">
    <polygon fill="#fff" points="30.8954 18.8307 39.582 18.8307 37.2819 34.1241 33.293 34.1155 30.8954 18.8307"/>
  </g>
  <g id="line">
    <path fill="none" stroke="#000" stroke-linecap="round" stroke-linejoin="round" stroke-width="2" d="m29.5,63.5l3-28.5h3"/>
    <path fill="none" stroke="#000" stroke-linecap="round" stroke-linejoin="round" stroke-width="2" d="m41,63.5l-3-28.5h-2.5"/>
    <path fill="none" stroke="#000" stroke-width="2" d="m32.5,35l-2.5-17"/>
    <path fill="none" stroke="#000" stroke-width="2" d="m38,35l2.5-17"/>
    <path fill="none" stroke="#000" stroke-linecap="round" stroke-linejoin="round" stroke-width="2" d="m35,18h5.5l2.5,24"/>
    <path fill="none" stroke="#000" stroke-linecap="round" stroke-linejoin="round" stroke-width="2" d="m35,18h-5l-2,24"/>
    <circle cx="35" cy="11" r="3" fill="none" stroke="#000" stroke-width="2"/>
  </g>
</svg>

<svg id="emoji" viewBox="0 0 72 72" xmlns="http://www.w3.org/2000/svg">
  <g id="color"/>
  <g id="line">
    <path fill="none" stroke="#000" stroke-linecap="round" stroke-linejoin="round" stroke-width="2" d="M29.5 63.5L32.5 35H35.5"/>
    <path fill="none" stroke="#000" stroke-linecap="round" stroke-linejoin="round" stroke-width="2" d="M41 63.5L38 35H35.5"/>
    <path fill="none" stroke="#000" stroke-width="2" d="M32.5 35L30 18"/>
    <path fill="none" stroke="#000" stroke-width="2" d="M38 35L40.5 18"/>
    <path fill="none" stroke="#000" stroke-linecap="round" stroke-linejoin="round" stroke-width="2" d="M35 18H40.5L43 42"/>
    <path fill="none" stroke="#000" stroke-linecap="round" stroke-linejoin="round" stroke-width="2" d="M35 18H30L28 42"/>
    <circle cx="35" cy="11" r="3" fill="none" stroke="#000" stroke-width="2"/>
  </g>
</svg>
